cfgov/unprocessed/apps/teachers-digital-platform/img/icon-two.svg

<svg height="20" viewBox="0 0 20 20" width="20" xmlns="http://www.w3.org/2000/svg"><path d="m134.0003 1736.04519h-3.290228l1.866796-1.69133c.182304-.16913.358775-.34123.529412-.51482.170636-.17358.322314-.36052.455031-.56229.134176-.20029.237725-.41838.315022-.65428.07438-.23441.1123-.49998.1123-.79374 0-.42431-.081673-.79374-.245017-1.11123-.163345-.31601-.380652-.57861-.654838-.78781-.272727-.2077-.584832-.36348-.933398-.46289-.348566-.10088-.708799-.15133-1.0807-.15133-.395236 0-.770053.06083-1.121536.18101-.3544.12017-.666505.29524-.939232.5252s-.498785.50591-.678172.83231c-.177929.3264-.290229.69731-.33544 1.1142l1.833252.25519c.03792-.37091.157511-.66912.358775-.8976.199806-.22847.460866-.34271.778804-.34271.303355 0 .546913.0905.729218.2715.182304.18249.272727.41987.272727.71214 0 .24628-.061254.47031-.182304.6706-.121051.20029-.28002.39761-.476909.59048l-3.142926 2.88862v1.62012h5.829363zm7-3.04551c0 5.52376-4.476248 10-10 10-5.522254 0-10-4.47624-10-10 0-5.52225 4.477746-10 10-10 5.523752 0 10 4.47775 10 10z" fill="#1e9642" fill-rule="evenodd" transform="translate(-121 -1723)"/></svg>

<?xml version="1.0" encoding="UTF-8"?>
<svg width="20px" height="20px" viewBox="0 0 20 20" version="1.1" xmlns="http://www.w3.org/2000/svg" xmlns:xlink="http://www.w3.org/1999/xlink">
    <title>Fill 352</title>
    <g id="Designs---r3.0" stroke="none" stroke-width="1" fill="none" fill-rule="evenodd">
        <g id="Design:-Results-page---3.0" transform="translate(-121.000000, -1723.000000)" fill="#1E9642">
            <path d="M134.0003,1736.04519 L130.710072,1736.04519 L132.576868,1734.35386 C132.759172,1734.18473 132.935643,1734.01263 133.10628,1733.83904 C133.276916,1733.66546 133.428594,1733.47852 133.561311,1733.27675 C133.695487,1733.07646 133.799036,1732.85837 133.876333,1732.62247 C133.950713,1732.38806 133.988633,1732.12249 133.988633,1731.82873 C133.988633,1731.40442 133.90696,1731.03499 133.743616,1730.7175 C133.580271,1730.40149 133.362964,1730.13889 133.088778,1729.92969 C132.816051,1729.72199 132.503946,1729.56621 132.15538,1729.4668 C131.806814,1729.36592 131.446581,1729.31547 131.07468,1729.31547 C130.679444,1729.31547 130.304627,1729.3763 129.953144,1729.49648 C129.598744,1729.61665 129.286639,1729.79172 129.013912,1730.02168 C128.741185,1730.25164 128.515127,1730.52759 128.33574,1730.85399 C128.157811,1731.18039 128.045511,1731.5513 128.0003,1731.96819 L129.833552,1732.22338 C129.871472,1731.85247 129.991063,1731.55426 130.192327,1731.32578 C130.392133,1731.09731 130.653193,1730.98307 130.971131,1730.98307 C131.274486,1730.98307 131.518044,1731.07357 131.700349,1731.25457 C131.882653,1731.43706 131.973076,1731.67444 131.973076,1731.96671 C131.973076,1732.21299 131.911822,1732.43702 131.790772,1732.63731 C131.669721,1732.8376 131.510752,1733.03492 131.313863,1733.22779 L128.170937,1736.11641 L128.170937,1737.73653 L134.0003,1737.73653 L134.0003,1736.04519 Z M141.0003,1732.99968 C141.0003,1738.52344 136.524052,1742.99968 131.0003,1742.99968 C125.478046,1742.99968 121.0003,1738.52344 121.0003,1732.99968 C121.0003,1727.47743 125.478046,1722.99968 131.0003,1722.99968 C136.524052,1722.99968 141.0003,1727.47743 141.0003,1732.99968 L141.0003,1732.99968 Z" id="Fill-352"></path>
        </g>
    </g>
</svg>
